assets/features/channel/east-asia/au.svg

<svg width="80" height="80" viewBox="0 0 80 80" fill="none" xmlns="http://www.w3.org/2000/svg">
<rect width="80" height="80" rx="8" fill="#EA5404"/>
<path d="M25.8859 40.7624C25.5917 41.8626 25.1515 42.865 24.5781 43.7411C22.8607 46.3643 20.5862 47.3752 19.0015 47.4658C17.2862 47.3822 17.1059 46.3706 17.7986 43.7879C20.1874 34.8633 25.571 32.8463 28.1478 32.3161L25.8859 40.7624ZM64.8378 36.6673C62.5372 40.1803 59.8909 43.8807 57.7363 45.9081C56.3248 47.238 53.3486 49.1288 54.5425 44.6687C54.8838 43.393 58.4677 30.0113 58.4677 30.0113C57.5056 30.0113 52.7202 29.7527 51.1202 35.7155C51.1202 35.7155 50.1034 39.502 49.6727 41.0983C49.3815 42.0667 48.9765 42.9551 48.4614 43.7411C46.7445 46.3643 44.4698 47.3752 42.8853 47.4658H42.8844C41.9548 47.4209 41.5089 47.091 41.3482 46.4236C41.1891 45.7756 41.5075 44.4428 41.6808 43.7942L45.3714 30.011C44.8577 30.0037 39.6849 29.5285 38.0242 35.7152L36.2754 42.2104C36.1583 42.6061 35.8606 43.4115 35.358 44.1341C34.2371 45.7473 32.2451 47.4663 31.1893 47.4663C30.4375 47.4663 30.1395 46.6049 30.6579 44.6684L34.5828 30.0113H32.8422C26.6867 30.0113 22.3012 31.0026 19.0429 33.1299C13.5776 36.6948 12.1985 43.7542 12.1985 45.2065C12.1985 46.7562 12.676 49.9976 18.056 49.9976C21.414 49.9976 23.7841 48.235 25.2076 46.6101L25.3705 46.4223C25.483 47.1871 25.7505 48.0205 26.3239 48.6903C27.0335 49.5177 28.3742 49.9976 29.6593 49.9976C32.4927 49.9976 34.9129 48.0989 36.2002 46.4266L36.2016 46.4321C36.535 48.0338 37.7515 50 41.9417 50C45.2992 50 47.6693 48.2377 49.0925 46.6117C49.1467 46.5502 49.2012 46.489 49.2532 46.4266C49.3668 47.1898 49.6332 48.0216 50.2066 48.6903L50.2679 48.7562L50.2853 48.7747C50.9922 49.5294 52.3729 49.9967 53.4941 49.9967C55.9279 49.9967 58.326 48.6054 60.3458 46.477C62.9668 43.7136 66.412 38.7353 67.8017 36.667" fill="white"/>
</svg>

<svg xmlns="http://www.w3.org/2000/svg" width="80" height="80" fill="none" viewBox="0 0 80 80"><rect width="80" height="80" fill="#ea5404" rx="8"/><path fill="#fff" d="M25.886 40.762a10.3 10.3 0 0 1-1.308 2.98c-1.717 2.622-3.992 3.633-5.576 3.724-1.716-.084-1.896-1.095-1.203-3.678 2.388-8.925 7.772-10.942 10.349-11.472zm38.952-4.095c-2.3 3.513-4.947 7.214-7.102 9.241-1.411 1.33-4.387 3.22-3.193-1.24.34-1.275 3.925-14.657 3.925-14.657-.962 0-5.748-.258-7.348 5.704l-1.447 5.383a10.1 10.1 0 0 1-1.212 2.643c-1.716 2.623-3.991 3.634-5.576 3.725-.93-.045-1.376-.375-1.537-1.042-.159-.648.16-1.981.333-2.63l3.69-13.783c-.513-.007-5.686-.482-7.347 5.704l-1.749 6.495a7.2 7.2 0 0 1-.917 1.924c-1.12 1.613-3.113 3.332-4.169 3.332-.751 0-1.05-.861-.531-2.798l3.925-14.657h-1.74c-6.156 0-10.542.992-13.8 3.119-5.465 3.565-6.844 10.624-6.844 12.076 0 1.55.477 4.792 5.857 4.792 3.358 0 5.728-1.763 7.152-3.388l.163-.188c.112.765.38 1.599.953 2.268.71.828 2.05 1.308 3.335 1.308 2.834 0 5.254-1.9 6.541-3.571l.002.005c.333 1.602 1.55 3.568 5.74 3.568 3.357 0 5.727-1.762 7.15-3.388q.084-.092.161-.185c.114.763.38 1.595.954 2.263l.06.066.018.019c.707.754 2.088 1.222 3.21 1.222 2.433 0 4.831-1.392 6.85-3.52 2.622-2.763 6.067-7.742 7.457-9.81"/></svg>
